storage/app/icons/phosphoricons/fill/battery-vertical-low-fill.svg

<svg xmlns="http://www.w3.org/2000/svg" fill="currentColor" viewBox="0 0 256 256"><path d="M88 8a8 8 0 0 1 8-8h64a8 8 0 0 1 0 16H96a8 8 0 0 1-8-8m72 176H96a8 8 0 0 0-8 8v16a8 8 0 0 0 8 8h64a8 8 0 0 0 8-8v-16a8 8 0 0 0-8-8m40-128v168a24 24 0 0 1-24 24H80a24 24 0 0 1-24-24V56a24 24 0 0 1 24-24h96a24 24 0 0 1 24 24m-16 0a8 8 0 0 0-8-8H80a8 8 0 0 0-8 8v168a8 8 0 0 0 8 8h96a8 8 0 0 0 8-8Z"/></svg>

<svg xmlns="http://www.w3.org/2000/svg" viewBox="0 0 256 256" fill="currentColor"><path d="M88,8a8,8,0,0,1,8-8h64a8,8,0,0,1,0,16H96A8,8,0,0,1,88,8Zm72,176H96a8,8,0,0,0-8,8v16a8,8,0,0,0,8,8h64a8,8,0,0,0,8-8V192A8,8,0,0,0,160,184ZM200,56V224a24,24,0,0,1-24,24H80a24,24,0,0,1-24-24V56A24,24,0,0,1,80,32h96A24,24,0,0,1,200,56Zm-16,0a8,8,0,0,0-8-8H80a8,8,0,0,0-8,8V224a8,8,0,0,0,8,8h96a8,8,0,0,0,8-8Z"/></svg>
